!!!OTL: WER HAT DIE SCHOENSTEN SCHAEFCHEN
!!!ARE: Europa, Mitteleuropa, Deutschland
!!!SCT: B0635
!!!YEM: Copyright 1995, estate of Helmut Schaffrath.
**kern
*ICvox
*Ivox
*M2/4
*k[f#]
*G:
{8d
=1
8g
8b
8b
8a
=2
8a
8g
8g}
{8g
=3
8b
8g
8dd
8b
=4
4a
8r}
{8g
=5
8dd
8dd
8dd
8dd
=6
4dd
4b}
=7
{4gg
4ee
=8
4dd
8b}
{8dd
=9
8cc
8a
8g
8f#
=10
8g
8b
8dd}
{8b
=11
8cc
8a
8g
8f#
=12
4g
8r}
==
!!!AGN: Kinder -, Tageszeiten - Lied, Abend
!!!ONB: ESAC (Essen Associative Code) Database: BOEHME
!!!AMT: simple duple
!!!AIN: vox
!!!EED: Helmut Schaffrath
!!!EEV: 1.0
*-
